X: 120274
T: Ligue's Porch
C: Johnny Harling
Z: B.Black
R: reel
M: 4/4
L: 1/8
K: Ador
A2 dc AG G2 | EGDG EGDG | A2 dc AGAB | c2 ec Gcec |
A2 dc AG G2 | EGDG EGDG | A2 dc AGAB | cAGE ED D2 :|
c2 ec Gcec | g3 a gedB | c2 ec Gcec | gedc AG G2 |
c2 ec Gcec | g3 a gedB | gedB c2 ge | dcAG ED D2 :|
